Catalina-dark/actions/16/go-next-context.svg

<svg width="16" height="16" version="1.1" viewBox="0 0 16 16" xmlns="http://www.w3.org/2000/svg">
<defs>
<style id="current-color-scheme" type="text/css">.ColorScheme-Text { color:#5c616c; } .ColorScheme-Highlight { color:#5294e2; }</style>
</defs>
<path class="ColorScheme-Text" d="m0 2v12h10l6-6-6-6h-10zm4 2h1v1h-1c-0.55222 0-1 0.44771-1 1v1c0 0.38251-0.13928 0.73504-0.375 1 0.23572 0.26497 0.375 0.6175 0.375 1v1c0 0.55222 0.44771 1 1 1h1v1h-1c-1.1045 0-2-0.8955-2-2v-1c0-0.27615-0.22386-0.5-0.5-0.5h-0.5v-1h0.5c0.27614 0 0.5-0.22384 0.5-0.5v-1c0-1.1045 0.8955-2 2-2zm2 0h1c1.1045 0 2 0.8955 2 2v1c0 0.27616 0.22386 0.5 0.5 0.5h0.5v1h-0.5c-0.27614 0-0.5 0.22385-0.5 0.5v1c0 1.1045-0.8955 2-2 2h-1v-1h1c0.55229 0 1-0.44778 1-1v-1c0-0.3825 0.13928-0.73503 0.375-1-0.23572-0.26496-0.375-0.61749-0.375-1v-1c0-0.55229-0.44778-1-1-1h-1v-1z" fill="#f1f6f8" fill-opacity=".85098"/>
</svg>

<?xml version="1.0" encoding="UTF-8" standalone="no"?>
<svg
   xmlns:dc="http://purl.org/dc/elements/1.1/"
   xmlns:cc="http://creativecommons.org/ns#"
   xmlns:rdf="http://www.w3.org/1999/02/22-rdf-syntax-ns#"
   xmlns:svg="http://www.w3.org/2000/svg"
   xmlns="http://www.w3.org/2000/svg"
   xmlns:sodipodi="http://sodipodi.sourceforge.net/DTD/sodipodi-0.dtd"
   xmlns:inkscape="http://www.inkscape.org/namespaces/inkscape"
   width="16"
   height="16"
   viewBox="0 0 16 16"
   version="1.1"
   id="svg7"
   sodipodi:docname="go-next-context.svg"
   inkscape:version="0.92.4 5da689c313, 2019-01-14">
  <metadata
     id="metadata11">
    <rdf:RDF>
      <cc:Work
         rdf:about="">
        <dc:format>image/svg+xml</dc:format>
        <dc:type
           rdf:resource="http://purl.org/dc/dcmitype/StillImage" />
      </cc:Work>
    </rdf:RDF>
  </metadata>
  <sodipodi:namedview
     pagecolor="#ffffff"
     bordercolor="#666666"
     borderopacity="1"
     objecttolerance="10"
     gridtolerance="10"
     guidetolerance="10"
     inkscape:pageopacity="0"
     inkscape:pageshadow="2"
     inkscape:window-width="715"
     inkscape:window-height="480"
     id="namedview9"
     showgrid="false"
     inkscape:zoom="14.75"
     inkscape:cx="-0.54237288"
     inkscape:cy="8"
     inkscape:window-x="0"
     inkscape:window-y="26"
     inkscape:window-maximized="0"
     inkscape:current-layer="svg7" />
  <defs
     id="defs3">
    <style
       id="current-color-scheme"
       type="text/css">
   .ColorScheme-Text { color:#5c616c; } .ColorScheme-Highlight { color:#5294e2; }
  </style>
  </defs>
  <path
     style="fill:#f1f6f8;fill-opacity:0.8509804"
     class="ColorScheme-Text"
     d="M 0 2 L 0 14 L 10 14 L 15.292969 8.7070312 L 16 8 L 15.292969 7.2929688 L 10 2 L 0 2 z M 4 4 L 5 4 L 5 5 L 4 5 C 3.44778 5 3 5.44771 3 6 L 3 7 C 3 7.38251 2.86072 7.73504 2.625 8 C 2.86072 8.26497 3 8.6175 3 9 L 3 10 C 3 10.55222 3.44771 11 4 11 L 5 11 L 5 12 L 4 12 C 2.89549 12 2 11.1045 2 10 L 2 9 C 2 8.72385 1.77614 8.5 1.5 8.5 L 1 8.5 L 1 7.5 L 1.5 7.5 C 1.77614 7.5 2 7.27616 2 7 L 2 6 C 2 4.89549 2.8955 4 4 4 z M 6 4 L 7 4 C 8.10452 4 9 4.8955 9 6 L 9 7 C 9 7.27616 9.22386 7.5 9.5 7.5 L 10 7.5 L 10 8.5 L 9.5 8.5 C 9.22386 8.5 9 8.72385 9 9 L 9 10 C 9 11.10452 8.1045 12 7 12 L 6 12 L 6 11 L 7 11 C 7.55229 11 8 10.55222 8 10 L 8 9 C 8 8.6175 8.13928 8.26497 8.375 8 C 8.13928 7.73504 8 7.38251 8 7 L 8 6 C 8 5.44771 7.55222 5 7 5 L 6 5 L 6 4 z"
     id="path5" />
</svg>
